X: 5798
T: Cal Callaghan's
R: reel
M: 4/4
K: Dmajor
F3A GEE2|FDDF ABAG|FGAF GEE2|AFGE DFAG|
F3A GEE2|FDDF A3G|F3A GEE2|AFGE D4|
Addc d2AB|AGFG ABcA|d3e dcAB|=cBAF G2FG|
Adde dcAB|AGFG ABcA|d2fd d2fd|d2fd ecAG|

